X:3
T:Heure d'ete
C: C. Declerck (1996)
S: declerck.christian#wanadoo.fr
Q:1/4=180
R:jig
M:6/8
L:1/8
K:G Major
FAB AFD|F{G}F{E}F AFE|DFB AFD|E{F}E{D}E FDB,|!
DFB AFE|F{G}F{E}F Ade|f{a}ed edA|[1B{d}B{A}B dAG:|[2B{d}B{A}B dAF:|!
def fef|afa b(3afe|def fef|edB B2A|!
def fef|afa b2f|gfe fed|[1BAB dAF:|[2BAB dAG|]!
